cursors/src/svg/pencil.svg

<?xml version="1.0" encoding="UTF-8" standalone="no"?>
<!-- Created with Inkscape (http://www.inkscape.org/) -->

<svg
   xmlns:dc="http://purl.org/dc/elements/1.1/"
   xmlns:cc="http://creativecommons.org/ns#"
   xmlns:rdf="http://www.w3.org/1999/02/22-rdf-syntax-ns#"
   xmlns:svg="http://www.w3.org/2000/svg"
   xmlns="http://www.w3.org/2000/svg"
   xmlns:sodipodi="http://sodipodi.sourceforge.net/DTD/sodipodi-0.dtd"
   xmlns:inkscape="http://www.inkscape.org/namespaces/inkscape"
   width="32"
   height="32"
   viewBox="0 0 32 32.000001"
   id="svg2"
   version="1.1"
   inkscape:version="0.92.4 5da689c313, 2019-01-14"
   sodipodi:docname="pencil.svg">
  <defs
     id="defs4">
    <filter
       style="color-interpolation-filters:sRGB"
       height="1.3284307"
       y="-0.16421528"
       width="1.3291703"
       x="-0.16458514"
       id="filter7870"
       inkscape:collect="always">
      <feGaussianBlur
         id="feGaussianBlur7872"
         stdDeviation="1.2182592"
         inkscape:collect="always" />
    </filter>
  </defs>
  <sodipodi:namedview
     id="base"
     pagecolor="#dcdcdc"
     bordercolor="#666666"
     borderopacity="1.0"
     inkscape:pageopacity="0"
     inkscape:pageshadow="2"
     inkscape:zoom="15.839192"
     inkscape:cx="-4.1258689"
     inkscape:cy="11.601732"
     inkscape:document-units="px"
     inkscape:current-layer="layer1"
     showgrid="false"
     units="px"
     inkscape:window-width="1366"
     inkscape:window-height="696"
     inkscape:window-x="0"
     inkscape:window-y="36"
     inkscape:window-maximized="1" />
  <metadata
     id="metadata7">
    <rdf:RDF>
      <cc:Work
         rdf:about="">
        <dc:format>image/svg+xml</dc:format>
        <dc:type
           rdf:resource="http://purl.org/dc/dcmitype/StillImage" />
        <dc:title />
      </cc:Work>
    </rdf:RDF>
  </metadata>
  <g
     inkscape:label="Layer 1"
     inkscape:groupmode="layer"
     id="layer1"
     transform="translate(0,-1020.3622)">
    <path
       transform="matrix(1,0,0,-1,-257.98827,1549.9704)"
       inkscape:connector-curvature="0"
       id="path7428"
       d="m 260.84375,498.5625 c -0.55706,0.0984 -0.9489,0.74098 -0.78125,1.28125 l 1.0625,3.1875 c 0.0401,0.14994 0.11563,0.29026 0.21875,0.40625 l 12.59375,12.625 c 0.1591,0.15646 0.3719,0.25726 0.59375,0.28125 0.30426,0.0426 0.62589,-0.0646 0.84375,-0.28125 l 2.125,-2.125 c 0.38424,-0.37177 0.38424,-1.06573 0,-1.4375 l -12.59375,-12.625 c -0.11599,-0.10312 -0.25631,-0.17868 -0.40625,-0.21875 l -3.1875,-1.0625 c -0.15085,-0.0473 -0.31297,-0.058 -0.46875,-0.0312 z"
       style="color:#000000;font-style:normal;font-variant:normal;font-weight:normal;font-stretch:normal;font-size:medium;line-height:normal;font-family:Sans;-inkscape-font-specification:Sans;text-indent:0;text-align:start;text-decoration:none;text-decoration-line:none;letter-spacing:normal;word-spacing:normal;text-transform:none;writing-mode:lr-tb;direction:ltr;baseline-shift:baseline;text-anchor:start;display:inline;overflow:visible;visibility:visible;opacity:0.2;fill:#000000;fill-opacity:1;fill-rule:nonzero;stroke:none;stroke-width:2;marker:none;filter:url(#filter7870);enable-background:accumulate" />
    <path
       inkscape:connector-curvature="0"
       id="path4801-6-4-9"
       d="m 16.542979,1032.6318 a 1.0001,1.0001 0 0 0 -0.59375,0.2813 l -12.59375,12.625 a 1.0001,1.0001 0 0 0 -0.21875,0.4062 l -1.0625,3.1875 a 1.0001,1.0001 0 0 0 1.25,1.25 l 3.1875,-1.0625 a 1.0001,1.0001 0 0 0 0.40625,-0.2187 l 12.59375,-12.625 a 1.0001,1.0001 0 0 0 0,-1.4375 l -2.125,-2.125 a 1.0001,1.0001 0 0 0 -0.84375,-0.2813 z"
       style="color:#000000;font-style:normal;font-variant:normal;font-weight:normal;font-stretch:normal;font-size:medium;line-height:normal;font-family:Sans;-inkscape-font-specification:Sans;text-indent:0;text-align:start;text-decoration:none;text-decoration-line:none;letter-spacing:normal;word-spacing:normal;text-transform:none;writing-mode:lr-tb;direction:ltr;baseline-shift:baseline;text-anchor:start;display:inline;overflow:visible;visibility:visible;fill:#ffffff;fill-opacity:1;fill-rule:nonzero;stroke:none;stroke-width:2;marker:none;enable-background:accumulate" />
    <path
       sodipodi:nodetypes="ccccccccccc"
       inkscape:connector-curvature="0"
       id="path4801-6-4"
       d="m 16.667979,1033.6318 -12.59375,12.625 -1.0625,3.1875 3.1875,-1.0625 12.59375,-12.625 z m 0.0312,1.4375 0.6875,0.6875 -1.3125,1.3125 -0.6875,-0.6875 z"
       style="fill:#282A33;fill-opacity:1;stroke:none" />
  </g>
</svg>

<?xml version="1.0" encoding="UTF-8" standalone="no"?>
<!DOCTYPE svg PUBLIC "-//W3C//DTD SVG 1.1//EN" "http://www.w3.org/Graphics/SVG/1.1/DTD/svg11.dtd">
<svg width="100%" height="100%" viewBox="0 0 32 32" version="1.1" xmlns="http://www.w3.org/2000/svg" xmlns:xlink="http://www.w3.org/1999/xlink" xml:space="preserve" xmlns:serif="http://www.serif.com/" style="fill-rule:evenodd;clip-rule:evenodd;stroke-linejoin:round;stroke-miterlimit:2;">
    <g id="Layer-1" serif:id="Layer 1" transform="matrix(1,0,0,1,0,-1020.36)">
        <g id="path7428" transform="matrix(1,-0,-0,1,-0,1020.36)">
            <use xlink:href="#_Image1" x="0" y="9.6" width="23px" height="23px"/>
        </g>
        <path id="path4801-6-4-9" d="M16.543,1032.63C16.319,1032.66 16.11,1032.76 15.949,1032.91L3.355,1045.54C3.252,1045.65 3.177,1045.79 3.137,1045.94L2.074,1049.13C2.045,1049.23 2.03,1049.33 2.03,1049.43C2.03,1049.97 2.481,1050.43 3.03,1050.43C3.13,1050.43 3.229,1050.41 3.324,1050.38L6.512,1049.32C6.662,1049.28 6.801,1049.2 6.918,1049.1L19.512,1036.48C19.706,1036.29 19.816,1036.03 19.816,1035.76C19.816,1035.49 19.706,1035.23 19.512,1035.04L17.387,1032.91C17.165,1032.69 16.853,1032.59 16.543,1032.63Z" style="fill:white;fill-rule:nonzero;"/>
        <path id="path4801-6-4" d="M16.668,1033.63L4.074,1046.26L3.012,1049.44L6.199,1048.38L18.793,1035.76L16.668,1033.63ZM16.699,1035.07L17.387,1035.76L16.074,1037.07L15.387,1036.38L16.699,1035.07Z" style="fill-rule:nonzero;"/>
    </g>
    <defs>
        <image id="_Image1" width="23px" height="23px" xlink:href="data:image/png;base64,iVBORw0KGgoAAAANSUhEUgAAABcAAAAXCAYAAADgKtSgAAAACXBIWXMAAA7EAAAOxAGVKw4bAAABD0lEQVRIia3V4XKDIBBG0asmpO//tI0atz+yn66UtoBlZkfF8bCCKwP9bSj0Wby4XYAVJdh6cGGjRxxg89Ag1oJHePLEJu834OWxtmYe4ZtH8uPoGa/A7LDhI7fCd+ABfPjxHhxNi1ExLT/BCj3/cngKzwy/4X/Bye9pvi0Hxguwstw4FlNvYICV8FoYxxbeCznzXtT9LXK8FZ6Bp8fiUcy8F/708yWblj3z/4BXh/c2ZueC0wXYIjhwLunEUSDdcI4LvpxxjsesE+eS7oLh+PHEH5L6VHlLDyw8zrkWWJ+T4GcrLFzN+F7KwlV91XDEhaoQ4FzaKutqWHiEN8o7i7awajjiamvAN877YjWq9gWF/KQsUQcxUwAAAABJRU5ErkJggg=="/>
    </defs>
</svg>
